icons/svg/24x24/notes/outline.svg

<svg width="24" height="24" fill="none" xmlns="http://www.w3.org/2000/svg">
  <path fill-rule="evenodd" clip-rule="evenodd" d="M19 16c0 1.654-1.346 3-3 3H8c-1.654 0-3-1.346-3-3V8c0-1.654 1.346-3 3-3h4V3H8C5.243 3 3 5.243 3 8v8c0 2.757 2.243 5 5 5h8c2.757 0 5-2.243 5-5v-4h-2v4zm1.385-9.412c.82-.821.82-2.151 0-2.973a2.104 2.104 0 00-2.973 0l-.495.496 2.972 2.972.496-.495zM9 12l7-7 3 3-7 7-4 1 1-4z" fill="#000"/>
</svg>

<svg xmlns="http://www.w3.org/2000/svg" width="24" height="24" viewBox="0 0 24 24">
  <path fill-rule="evenodd" d="M19,16 C19,17.654 17.654,19 16,19 L8,19 C6.346,19 5,17.654 5,16 L5,8 C5,6.346 6.346,5 8,5 L12,5 L12,3 L8,3 C5.243,3 3,5.243 3,8 L3,16 C3,18.757 5.243,21 8,21 L16,21 C18.757,21 21,18.757 21,16 L21,12 L19,12 L19,16 Z M20.385,6.588 C21.205,5.767 21.205,4.437 20.385,3.615 C19.563,2.795 18.232,2.795 17.412,3.615 L16.917,4.111 L19.889,7.083 L20.385,6.588 Z M9,12 L16,5 L19,8 L12,15 L8,16 L9,12 Z"/>
</svg>
